public/icons/tokens/wone.svg

<svg width="256" height="256" viewBox="0 0 256 256" fill="none" xmlns="http://www.w3.org/2000/svg">
<path d="M128 256C198.692 256 256 198.692 256 128C256 57.3075 198.692 0 128 0C57.3075 0 0 57.3075 0 128C0 198.692 57.3075 256 128 256Z" fill="white"/>
<path d="M91.0358 221.498C138.893 221.498 138.893 220.785 147.008 218.377C157.608 215.229 117.068 187.164 91.0358 187.164C65.0038 187.164 43.9028 194.849 43.9028 204.329C43.9028 213.809 65.0028 221.498 91.0358 221.498Z" fill="black"/>
<path d="M199.706 75.513L201.906 77.885L199.982 80.485C137.567 164.875 101.612 203.085 86.3571 197.959C77.0651 194.838 67.7461 185.45 58.4281 171.818C55.1521 167.027 52.0771 161.981 49.2791 156.96C47.4161 153.617 45.8391 150.567 45.0211 148.85C44.1651 147.173 43.5474 145.385 43.1861 143.537L43.1441 143.324C42.9981 142.571 42.9441 142.334 42.8381 141.924C38.5509 125.778 39.1112 108.728 44.4489 92.8988C49.7867 77.0695 59.6659 63.1616 72.8547 52.9091C86.0435 42.6566 101.959 36.5131 118.615 35.2447C135.272 33.9762 151.934 37.6389 166.523 45.776L166.847 45.976C177.138 53.1427 188.091 62.9883 199.706 75.513ZM162.547 52.493C149.291 45.1524 134.169 41.87 119.063 43.0536C103.956 44.2373 89.5302 49.8349 77.5789 59.1505C65.6277 68.4662 56.678 81.089 51.8424 95.4497C47.0068 109.811 46.4987 125.276 50.3811 139.923C50.5501 140.559 50.6261 140.918 50.8051 141.84L50.8421 142.029C51.0783 143.238 51.4904 144.406 52.0651 145.495C52.8121 147.062 54.3131 149.964 56.0961 153.165C58.7851 157.991 61.7391 162.837 64.8701 167.417C73.2891 179.733 81.6391 188.144 88.8421 190.564C98.4491 193.791 134.616 155.506 191.773 78.464C181.396 67.5087 171.654 58.8517 162.547 52.493Z" fill="black"/>
<path d="M162.546 52.493C149.29 45.1528 134.168 41.8705 119.062 43.0543C103.955 44.2381 89.5298 49.8358 77.5787 59.1514C65.6276 68.467 56.678 81.0897 51.8424 95.4502C47.0069 109.811 46.4987 125.276 50.3809 139.923C50.5499 140.559 50.6259 140.918 50.8049 141.84L50.8419 142.029C51.0783 143.237 51.4904 144.404 52.0649 145.493C52.8119 147.06 54.3129 149.962 56.0959 153.163C58.7849 157.989 61.7389 162.835 64.8699 167.415C73.2889 179.731 81.6389 188.142 88.8419 190.562C98.4489 193.789 134.616 155.504 191.773 78.462C181.396 67.5073 171.653 58.851 162.546 52.493Z" fill="#EC1C79"/>
<path d="M140.663 220.718C123.84 220.718 107.396 215.73 93.4084 206.383C79.421 197.037 68.5192 183.753 62.0815 168.212C55.6438 152.67 53.9594 135.568 57.2413 119.068C60.5232 102.569 68.624 87.4136 80.5193 75.5183C92.4146 63.623 107.57 55.5222 124.069 52.2403C140.569 48.9584 157.671 50.6428 173.212 57.0805C188.754 63.5182 202.038 74.42 211.384 88.4074C220.731 102.395 225.719 118.84 225.719 135.662C225.719 158.22 216.758 179.855 200.807 195.806C184.856 211.757 163.221 220.718 140.663 220.718ZM140.663 212.918C155.942 212.918 170.877 208.387 183.581 199.898C196.285 191.41 206.187 179.345 212.034 165.229C217.88 151.113 219.41 135.581 216.43 120.595C213.449 105.61 206.092 91.8452 195.288 81.0413C184.484 70.2374 170.72 62.8797 155.735 59.8987C140.749 56.9176 125.217 58.4471 111.101 64.2937C96.9848 70.1403 84.9195 80.0414 76.4307 92.745C67.9418 105.449 63.4106 120.384 63.41 135.663C63.41 145.808 65.4082 155.854 69.2905 165.226C73.1729 174.599 78.8633 183.115 86.0369 190.289C93.2105 197.462 101.727 203.153 111.1 207.035C120.472 210.917 130.518 212.915 140.663 212.915V212.918Z" fill="black"/>
<path d="M140.662 212.915C155.941 212.915 170.877 208.384 183.581 199.896C196.285 191.407 206.187 179.342 212.034 165.226C217.881 151.11 219.411 135.578 216.43 120.592C213.449 105.607 206.092 91.8419 195.288 81.0379C184.484 70.234 170.719 62.8764 155.734 59.8955C140.749 56.9146 125.216 58.4443 111.1 64.2912C96.9838 70.138 84.9186 80.0394 76.43 92.7433C67.9413 105.447 63.4104 120.383 63.4102 135.662C63.41 145.807 65.4081 155.853 69.2903 165.225C73.1725 174.598 78.8629 183.114 86.0364 190.288C93.2099 197.462 101.726 203.152 111.099 207.034C120.472 210.917 130.517 212.915 140.662 212.915Z" fill="white"/>
<circle cx="140.41" cy="135.41" r="77" fill="white"/>
<path d="M166.81 89.21C155.906 89.21 147.01 98.1327 146.723 109.07V131.233C144.714 131.233 142.706 131.521 140.41 131.521C138.114 131.521 136.106 131.521 134.097 131.809V109.07C134.097 98.1327 124.914 89.21 113.723 89.4978C103.106 89.4978 94.4969 98.4205 94.21 109.07V162.031C94.4969 172.968 103.393 181.891 114.584 181.603C125.488 181.316 134.097 172.681 134.097 162.031V139.868C136.106 139.868 138.114 139.58 140.41 139.58C142.706 139.58 144.714 139.58 146.723 139.293V161.743C147.01 172.681 155.906 181.603 167.097 181.316C178.001 181.028 186.61 172.393 186.61 161.743V109.07C186.61 98.1327 177.714 89.21 166.81 89.21ZM114.297 97.2692C120.897 97.2692 126.062 102.45 126.062 109.07V132.384C120.323 133.248 114.584 134.975 109.132 137.278C106.836 138.429 104.54 139.58 102.532 141.307V109.07C102.532 102.738 107.697 97.2692 114.297 97.2692ZM126.062 162.031C126.062 168.651 120.897 173.832 114.297 173.832C107.697 173.832 102.532 168.651 102.532 162.031V156.85C102.532 152.245 106.262 147.639 112.575 145.049C116.88 143.034 121.471 141.883 126.349 141.019L126.062 162.031ZM166.81 173.832C160.21 173.832 155.045 168.651 155.045 162.031V138.717C160.784 137.853 166.523 136.126 171.975 133.824C174.27 132.672 176.566 131.521 178.575 129.794V162.031C178.575 168.651 173.123 173.832 166.81 173.832ZM168.531 126.34C164.227 128.355 159.636 129.506 154.758 130.37V109.07C154.758 102.45 159.923 97.2692 166.523 97.2692C173.123 97.2692 178.288 102.45 178.288 109.07V114.251C178.575 119.144 174.844 123.462 168.531 126.34Z" fill="url(#paint0_linear_1751_1912)"/>
<path d="M45.0691 111.479C44.0572 110.947 43.2941 110.039 42.9435 108.951C42.5929 107.863 42.6827 106.681 43.1936 105.658C43.7045 104.635 44.5958 103.854 45.6765 103.481C46.7571 103.107 47.9409 103.172 48.9741 103.662L61.4591 109.905C61.9789 110.158 62.4435 110.511 62.8259 110.944C63.2083 111.378 63.5009 111.883 63.6868 112.43C63.8727 112.977 63.9482 113.556 63.9089 114.133C63.8695 114.709 63.7162 115.273 63.4577 115.79C63.1993 116.307 62.8408 116.767 62.4031 117.145C61.9654 117.522 61.4571 117.809 60.9078 117.989C60.3584 118.169 59.7789 118.238 59.2027 118.192C58.6265 118.146 58.0651 117.986 57.5511 117.722L45.0691 111.479Z" fill="black"/>
<path d="M43.632 132.18C43.1035 131.944 42.6269 131.606 42.2301 131.185C41.8333 130.764 41.5241 130.268 41.3205 129.726C41.1169 129.185 41.0229 128.608 41.0439 128.029C41.065 127.451 41.2007 126.883 41.4432 126.357C41.6857 125.832 42.0301 125.36 42.4565 124.969C42.8829 124.577 43.3828 124.275 43.9271 124.078C44.4714 123.882 45.0493 123.795 45.6273 123.824C46.2053 123.852 46.7718 123.996 47.294 124.245L59.779 130.007C60.3076 130.243 60.7841 130.581 61.1809 131.002C61.5778 131.423 61.8869 131.919 62.0906 132.461C62.2942 133.002 62.3882 133.579 62.3672 134.158C62.3461 134.736 62.2104 135.304 61.9679 135.83C61.7254 136.355 61.381 136.827 60.9546 137.218C60.5282 137.61 60.0283 137.912 59.484 138.109C58.9397 138.305 58.3618 138.392 57.7838 138.363C57.2058 138.335 56.6393 138.191 56.117 137.942L43.632 132.18Z" fill="black"/>
<defs>
<linearGradient id="paint0_linear_1751_1912" x1="140.41" y1="89.21" x2="76.5106" y2="152.915" gradientUnits="userSpaceOnUse">
<stop stop-color="#00E8A2"/>
<stop offset="1" stop-color="#00ADE8"/>
</linearGradient>
</defs>
</svg>

<svg width="256" height="256" fill="none" xmlns="http://www.w3.org/2000/svg"><path d="M128 256c70.692 0 128-57.308 128-128C256 57.308 198.692 0 128 0 57.308 0 0 57.307 0 128c0 70.692 57.307 128 128 128Z" fill="#fff"/><path d="M91.036 221.498c47.857 0 47.857-.713 55.972-3.121 10.6-3.148-29.94-31.213-55.972-31.213s-47.133 7.685-47.133 17.165 21.1 17.169 47.133 17.169Z" fill="#000"/><path d="m199.706 75.513 2.2 2.372-1.924 2.6c-62.415 84.39-98.37 122.6-113.625 117.474-9.292-3.121-18.61-12.509-27.929-26.141-3.276-4.791-6.35-9.837-9.149-14.858-1.863-3.343-3.44-6.393-4.258-8.11a20.22 20.22 0 0 1-1.835-5.313l-.042-.213c-.146-.753-.2-.99-.306-1.4a85.088 85.088 0 0 1 123.685-96.148l.324.2c10.291 7.167 21.244 17.012 32.859 29.537Zm-37.159-23.02a77.3 77.3 0 0 0-112.166 87.43c.17.636.245.995.424 1.917l.037.189a12.605 12.605 0 0 0 1.223 3.466c.747 1.567 2.248 4.469 4.031 7.67 2.69 4.826 5.643 9.672 8.774 14.252 8.42 12.316 16.77 20.727 23.972 23.147 9.607 3.227 45.774-35.058 102.931-112.1-10.377-10.955-20.119-19.612-29.226-25.971Z" fill="#000"/><path d="M162.546 52.493a77.3 77.3 0 0 0-112.165 87.43c.169.636.245.995.424 1.917l.037.189a12.617 12.617 0 0 0 1.223 3.464c.747 1.567 2.248 4.469 4.03 7.67 2.69 4.826 5.644 9.672 8.775 14.252 8.419 12.316 16.769 20.727 23.972 23.147 9.607 3.227 45.774-35.058 102.931-112.1-10.377-10.955-20.12-19.611-29.227-25.969Z" fill="#EC1C79"/><path d="M140.663 220.718a85.058 85.058 0 0 1-83.422-101.65 85.056 85.056 0 1 1 83.422 101.65Zm0-7.8a77.246 77.246 0 0 0 42.918-13.02 77.248 77.248 0 0 0 11.707-118.857A77.252 77.252 0 0 0 69.29 165.226a77.257 77.257 0 0 0 41.81 41.809 77.254 77.254 0 0 0 29.563 5.88v.003Z" fill="#000"/><path d="M140.662 212.915a77.256 77.256 0 0 0 71.372-47.689 77.25 77.25 0 0 0-16.746-84.188A77.254 77.254 0 0 0 76.43 92.743a77.251 77.251 0 0 0 64.232 120.172Z" fill="#fff"/><circle cx="140.41" cy="135.41" r="77" fill="#fff"/><path d="M166.81 89.21c-10.904 0-19.8 8.923-20.087 19.86v22.163c-2.009 0-4.017.288-6.313.288-2.296 0-4.304 0-6.313.288V109.07c0-10.937-9.183-19.86-20.374-19.572-10.617 0-19.226 8.922-19.513 19.572v52.961c.287 10.937 9.183 19.86 20.374 19.572 10.904-.287 19.513-8.922 19.513-19.572v-22.163c2.009 0 4.017-.288 6.313-.288 2.296 0 4.304 0 6.313-.287v22.45c.287 10.938 9.183 19.86 20.374 19.573 10.904-.288 19.513-8.923 19.513-19.573V109.07c0-10.937-8.896-19.86-19.8-19.86Zm-52.513 8.06c6.6 0 11.765 5.18 11.765 11.8v23.314c-5.739.864-11.478 2.591-16.93 4.894-2.296 1.151-4.592 2.302-6.6 4.029V109.07c0-6.332 5.165-11.8 11.765-11.8Zm11.765 64.761c0 6.62-5.165 11.801-11.765 11.801-6.6 0-11.765-5.181-11.765-11.801v-5.181c0-4.605 3.73-9.211 10.043-11.801 4.305-2.015 8.896-3.166 13.774-4.03l-.287 21.012Zm40.748 11.801c-6.6 0-11.765-5.181-11.765-11.801v-23.314c5.739-.864 11.478-2.591 16.93-4.893 2.295-1.152 4.591-2.303 6.6-4.03v32.237c0 6.62-5.452 11.801-11.765 11.801Zm1.721-47.492c-4.304 2.015-8.895 3.166-13.773 4.03v-21.3c0-6.62 5.165-11.8 11.765-11.8 6.6 0 11.765 5.18 11.765 11.8v5.181c.287 4.893-3.444 9.211-9.757 12.089Z" fill="url(#a)"/><path d="M45.07 111.479a4.37 4.37 0 0 1 3.904-7.817l12.485 6.243a4.381 4.381 0 0 1 2.228 2.525 4.37 4.37 0 0 1-6.136 5.292l-12.482-6.243Zm-1.438 20.701a4.38 4.38 0 0 1-2.311-2.454 4.369 4.369 0 0 1 5.973-5.481l12.485 5.762a4.38 4.38 0 0 1 2.312 2.454 4.369 4.369 0 0 1-5.974 5.481l-12.485-5.762Z" fill="#000"/><defs><linearGradient id="a" x1="140.41" y1="89.21" x2="76.511" y2="152.915" gradientUnits="userSpaceOnUse"><stop stop-color="#00E8A2"/><stop offset="1" stop-color="#00ADE8"/></linearGradient></defs></svg>
